X: 1288
T: The Miller's Daughter
R:Reel
N:Collected by Cronin
B:O'Neill's 1288
Z:Transcribed by Trish O'Neil
M:C|
L:1/8
K:A
(ag)|e>c (3ccc (ec)fc|dfecB2(af)|e>c (3ccc (ecA)c|BABcA2(af)|
e>c (3ccc (ec)ac|dfecB3f|ecea fdfa|gefga2||
(fg)|afge fdef|afecB2(fg)|afge fdec|defg agaf|
eaga bgaf|ecAcB2(Bc)|Ad{e}dc defa|gefg a2|]


